src/components/00-materials/images-raw/Camping Car.svg

<svg width="96" height="96" viewBox="0 0 96 96" fill="none" xmlns="http://www.w3.org/2000/svg">
<path d="M10.2 55.21L11.38 34.89C11.38 34.89 12.8 25.67 21.77 25H75.06C75.06 25 79.42 24.95 79.42 30.87C79.42 32.35 78.48 36.45 74.95 36.45H11.29" stroke="#00008F" stroke-width="2" stroke-linecap="round" stroke-linejoin="round"/>
<path d="M10.27 54.0001C5.07 53.7901 5 50.4801 5 50.4801L5.71 38.0001C6.42 34.4501 11.38 34.9301 11.38 34.9301" stroke="#00008F" stroke-width="2" stroke-linecap="round" stroke-linejoin="round"/>
<path d="M26.85 71.03C31.677 71.03 35.59 67.117 35.59 62.2901C35.59 57.4631 31.677 53.55 26.85 53.55C22.023 53.55 18.11 57.4631 18.11 62.2901C18.11 67.117 22.023 71.03 26.85 71.03Z" stroke="#00008F" stroke-width="2" stroke-linecap="round" stroke-linejoin="round"/>
<path d="M26.85 66.07C28.9376 66.07 30.63 64.3776 30.63 62.29C30.63 60.2024 28.9376 58.51 26.85 58.51C24.7624 58.51 23.07 60.2024 23.07 62.29C23.07 64.3776 24.7624 66.07 26.85 66.07Z" stroke="#00008F" stroke-width="2" stroke-linecap="round" stroke-linejoin="round"/>
<path d="M71.63 71.03C76.457 71.03 80.37 67.117 80.37 62.2901C80.37 57.4631 76.457 53.55 71.63 53.55C66.803 53.55 62.89 57.4631 62.89 62.2901C62.89 67.117 66.803 71.03 71.63 71.03Z" stroke="#00008F" stroke-width="2" stroke-linecap="round" stroke-linejoin="round"/>
<path d="M71.63 66.07C73.7176 66.07 75.41 64.3776 75.41 62.29C75.41 60.2024 73.7176 58.51 71.63 58.51C69.5423 58.51 67.85 60.2024 67.85 62.29C67.85 64.3776 69.5423 66.07 71.63 66.07Z" stroke="#00008F" stroke-width="2" stroke-linecap="round" stroke-linejoin="round"/>
<path d="M7.13001 53.3C7.13001 53.3 6.00001 64 10.67 64.42H18.39M35.39 64.18H63.09M80.16 64.18H89.58C89.58 64.18 91 62.77 91 61.59L90.76 55.21H76.76M37.9 55.21H60.18M67.85 36.38C67.85 36.38 76.19 47.33 78.4 47.49C78.4 47.49 89.11 48 89.11 55.21M59.34 41.5V48.75H71.34C71.34 48.75 68.94 41.5 59.34 41.5ZM32.46 41.5H52.72V49.22H32.46V41.5ZM15.92 41.5L15.69 49.22H25.44V41.5H15.92Z" stroke="#00008F" stroke-width="2" stroke-linecap="round" stroke-linejoin="round"/>
</svg>

<svg width="96" height="96" viewBox="0 0 96 96" fill="none" xmlns="http://www.w3.org/2000/svg"><path d="M10.2 55.21l1.18-20.32S12.8 25.67 21.77 25h53.29s4.36-.05 4.36 5.87c0 1.48-.94 5.58-4.47 5.58H11.29" stroke="#00008F" stroke-width="2" stroke-linecap="round" stroke-linejoin="round"/><path d="M10.27 54C5.07 53.79 5 50.48 5 50.48L5.71 38c.71-3.55 5.67-3.07 5.67-3.07M26.85 71.03a8.74 8.74 0 100-17.48 8.74 8.74 0 000 17.48z" stroke="#00008F" stroke-width="2" stroke-linecap="round" stroke-linejoin="round"/><path d="M26.85 66.07a3.78 3.78 0 100-7.56 3.78 3.78 0 000 7.56zM71.63 71.03a8.74 8.74 0 100-17.48 8.74 8.74 0 000 17.48z" stroke="#00008F" stroke-width="2" stroke-linecap="round" stroke-linejoin="round"/><path d="M71.63 66.07a3.78 3.78 0 100-7.56 3.78 3.78 0 000 7.56zM7.13 53.3S6 64 10.67 64.42h7.72m17-.24h27.7m17.07 0h9.42S91 62.77 91 61.59l-.24-6.38h-14m-38.86 0h22.28m7.67-18.83s8.34 10.95 10.55 11.11c0 0 10.71.51 10.71 7.72M59.34 41.5v7.25h12s-2.4-7.25-12-7.25zm-26.88 0h20.26v7.72H32.46V41.5zm-16.54 0l-.23 7.72h9.75V41.5h-9.52z" stroke="#00008F" stroke-width="2" stroke-linecap="round" stroke-linejoin="round"/></svg>
